img/social/2.svg

<svg width="52" height="52" viewBox="0 0 52 52" fill="none" xmlns="http://www.w3.org/2000/svg">
<path d="M26 2C39.2548 2 49.9999 12.7451 49.9999 25.9996C49.9999 39.2547 39.2548 50.0002 26 50.0002C12.7452 50.0002 2.00001 39.2547 2.00001 25.9996C2.00001 12.7451 12.7451 2 26 2Z" fill="black" fill-opacity="0.01" stroke="white" stroke-width="2"/>
<g clip-path="url(#clip0_1_12)">
<path d="M37.9765 21.0561C37.9203 19.7809 37.7141 18.9042 37.4187 18.1445C37.1139 17.3381 36.6451 16.6162 36.0308 16.016C35.4307 15.4065 34.704 14.9329 33.9069 14.6329C33.1429 14.3375 32.2707 14.1313 30.9955 14.0751C29.7108 14.0141 29.3029 14 26.0445 14C22.786 14 22.3782 14.0141 21.0982 14.0703C19.823 14.1266 18.9463 14.333 18.1868 14.6282C17.3803 14.9329 16.6583 15.4018 16.0582 16.016C15.4487 16.6162 14.9753 17.3429 14.6751 18.1399C14.3797 18.9042 14.1735 19.7761 14.1172 21.0513C14.0563 22.336 14.0421 22.7439 14.0421 26.0023C14.0421 29.2608 14.0563 29.6686 14.1125 30.9486C14.1687 32.2238 14.3751 33.1005 14.6705 33.8602C14.9753 34.6666 15.4487 35.3885 16.0582 35.9887C16.6583 36.5982 17.385 37.0718 18.1821 37.3718C18.9463 37.6672 19.8182 37.8734 21.0936 37.9296C22.3734 37.986 22.7815 37.9999 26.0399 37.9999C29.2984 37.9999 29.7062 37.986 30.9862 37.9296C32.2614 37.8734 33.1381 37.6672 33.8976 37.3718C35.5105 36.7482 36.7857 35.4729 37.4093 33.8602C37.7045 33.096 37.9109 32.2238 37.9672 30.9486C38.0234 29.6686 38.0375 29.2608 38.0375 26.0023C38.0375 22.7439 38.0327 22.336 37.9765 21.0561ZM35.8153 30.8549C35.7636 32.027 35.5667 32.6599 35.4026 33.0819C34.9994 34.1274 34.1695 34.9572 33.124 35.3605C32.702 35.5246 32.0645 35.7215 30.897 35.7729C29.6311 35.8293 29.2515 35.8433 26.0493 35.8433C22.847 35.8433 22.4626 35.8293 21.2013 35.7729C20.0292 35.7215 19.3963 35.5246 18.9743 35.3605C18.454 35.1682 17.9804 34.8634 17.596 34.4649C17.1975 34.0758 16.8927 33.6069 16.7004 33.0866C16.5363 32.6647 16.3395 32.027 16.288 30.8596C16.2316 29.5937 16.2177 29.2139 16.2177 26.0117C16.2177 22.8095 16.2316 22.425 16.288 21.1639C16.3395 19.9918 16.5363 19.3589 16.7004 18.9369C16.8927 18.4165 17.1975 17.943 17.6008 17.5584C17.9898 17.1599 18.4586 16.8552 18.9791 16.6631C19.401 16.499 20.0387 16.3021 21.2061 16.2504C22.472 16.1942 22.8518 16.1801 26.0538 16.1801C29.2608 16.1801 29.6405 16.1942 30.9018 16.2504C32.0739 16.3021 32.7068 16.499 33.1288 16.6631C33.6491 16.8552 34.1227 17.1599 34.5071 17.5584C34.9056 17.9476 35.2103 18.4165 35.4026 18.9369C35.5667 19.3589 35.7636 19.9964 35.8153 21.1639C35.8715 22.4298 35.8856 22.8095 35.8856 26.0117C35.8856 29.2139 35.8715 29.589 35.8153 30.8549Z" fill="white"/>
<path d="M26.0445 19.8372C22.6408 19.8372 19.8792 22.5986 19.8792 26.0024C19.8792 29.4063 22.6408 32.1677 26.0445 32.1677C29.4483 32.1677 32.2097 29.4063 32.2097 26.0024C32.2097 22.5986 29.4483 19.8372 26.0445 19.8372ZM26.0445 30.0017C23.8363 30.0017 22.0452 28.2107 22.0452 26.0024C22.0452 23.7941 23.8363 22.0032 26.0445 22.0032C28.2528 22.0032 30.0437 23.7941 30.0437 26.0024C30.0437 28.2107 28.2528 30.0017 26.0445 30.0017Z" fill="white"/>
<path d="M33.893 19.5931C33.893 20.388 33.2485 21.0324 32.4535 21.0324C31.6587 21.0324 31.0142 20.388 31.0142 19.5931C31.0142 18.7981 31.6587 18.1538 32.4535 18.1538C33.2485 18.1538 33.893 18.7981 33.893 19.5931Z" fill="white"/>
</g>
<defs>
<clipPath id="clip0_1_12">
<rect width="24" height="24" fill="white" transform="translate(14 14)"/>
</clipPath>
</defs>
</svg>

<svg width="52" height="52" fill="none" xmlns="http://www.w3.org/2000/svg"><path d="M26 2c13.255 0 24 10.745 24 24S39.255 50 26 50 2 39.255 2 26 12.745 2 26 2z" fill="#000" fill-opacity=".01" stroke="#fff" stroke-width="2"/><g clip-path="url(#clip0_1_12)" fill="#fff"><path d="M37.977 21.056c-.057-1.275-.263-2.152-.558-2.912a5.857 5.857 0 00-1.388-2.128 5.906 5.906 0 00-2.124-1.383c-.764-.295-1.636-.502-2.911-.558-1.285-.06-1.693-.075-4.951-.075-3.259 0-3.667.014-4.947.07-1.275.057-2.152.263-2.911.558a5.856 5.856 0 00-2.129 1.388 5.91 5.91 0 00-1.383 2.124c-.295.764-.502 1.636-.558 2.911-.06 1.285-.075 1.693-.075 4.951 0 3.259.014 3.667.07 4.947.057 1.275.263 2.151.559 2.911a5.92 5.92 0 001.387 2.129 5.9 5.9 0 002.124 1.383c.764.295 1.636.501 2.912.558 1.28.056 1.688.07 4.946.07s3.666-.014 4.946-.07c1.275-.057 2.152-.263 2.912-.558a6.139 6.139 0 003.511-3.512c.296-.764.502-1.636.558-2.911.056-1.28.07-1.688.07-4.947 0-3.258-.004-3.666-.06-4.946zm-2.162 9.799c-.051 1.172-.248 1.805-.412 2.227a3.981 3.981 0 01-2.279 2.279c-.422.164-1.06.36-2.227.412-1.266.056-1.645.07-4.848.07-3.202 0-3.586-.014-4.848-.07-1.172-.052-1.805-.248-2.227-.413a3.693 3.693 0 01-1.378-.895 3.73 3.73 0 01-.896-1.378c-.164-.422-.36-1.06-.412-2.227-.056-1.266-.07-1.646-.07-4.848 0-3.203.014-3.587.07-4.848.052-1.172.248-1.805.412-2.227a3.68 3.68 0 01.9-1.379 3.725 3.725 0 011.38-.895c.421-.164 1.059-.36 2.226-.413 1.266-.056 1.646-.07 4.848-.07 3.207 0 3.587.014 4.848.07 1.172.052 1.805.249 2.227.413.52.192.994.497 1.378.895.399.39.703.858.896 1.379.164.422.36 1.06.412 2.227.056 1.266.07 1.645.07 4.848 0 3.202-.014 3.577-.07 4.843z"/><path d="M26.044 19.837a6.167 6.167 0 00-6.165 6.165 6.167 6.167 0 006.165 6.166 6.167 6.167 0 006.166-6.166 6.167 6.167 0 00-6.166-6.165zm0 10.165a4 4 0 11.002-8 4 4 0 01-.002 8zm7.849-10.409a1.44 1.44 0 11-2.879 0 1.44 1.44 0 012.879 0z"/></g><defs><clipPath id="clip0_1_12"><path fill="#fff" transform="translate(14 14)" d="M0 0h24v24H0z"/></clipPath></defs></svg>
